albertroad.htmlalbertroad.htmlalbertroad.htmlalbertroad.htmlalbertroad.htmlalbertroad.htmlalbertroad.htmlalbertroad.htmlDonal Siggins
albertroad.htmlFrom <I>Emer Mayock: Merry Bits of Timber</I>
albertroad.htmlalbertroad.html<PRE>T:Flathunters, The
T:Flathunters, The
M:C|
L:1/8
C:Donal Siggins
R:reel
D:Emer Mayock: Merry Bits of Timber
Z:Devin McCabe
K:BDor
B3d ~e3f|=gfef edcA|B2 (3Bcd e2fd|edfd ed (3Bcd|
!B3d ~e3f|=gfeg ~f3g|a~d3 afef|1d2fd edcA:|2=gef=g acde||
!f~B3 fBag|fcBc f2ag|f~d3 f2fg|afec dfag|
!f~B3 fBag|fcBc f2ag|f~d3 f2fg|afec abag|
!f~B3 fBag|fcBc f2ag|f~d3 f2fg|afec dfag|
!f~B3 fBag|fcBc f2ag|fdef edcA|B2fd ed (3Bcd||

%  ABC2Win Version 2.1 8/25/2001
albertroad.htmlalbertroad.htmlalbertroad.htmlalbertroad.htmlalbertroad.htmlalbertroad.htmlalbertroad.html